report_00007_2020-12-11T15:55:29.892Z/bootup-time/comparison/line/9_vs_10.svg

<svg width="640" height="500" xmlns="http://www.w3.org/2000/svg" xmlns:xlink="http://www.w3.org/1999/xlink"><path fill="#fff" d="M0 0h640v500H0z"/><defs><path id="d" stroke-width=".222" stroke="currentColor" d="M-1-1h2v2h-2z"/><path id="b" stroke-width=".222" stroke="currentColor" d="M0-1.33l-1.33 2h2.66z"/><path id="f" stroke-width=".222" stroke="currentColor" d="M0 1.33L1.265.411.782-1.067l-1.564-.009-.483 1.487z"/><use xlink:href="#b" id="c" stroke="currentColor" transform="rotate(180)"/><use xlink:href="#d" id="e" stroke="currentColor" transform="rotate(45)"/><circle id="a" stroke-width=".222" stroke="currentColor" cx="0" cy="0" r="1"/></defs><g fill="none" color="#000" stroke="currentColor"><path stroke="#000" d="M45.6 386.5h9m560.4 0h-9"/><text transform="translate(37.3 390.4)" stroke="none" fill="#000" font-family="Arial" font-size="12" text-anchor="end"><tspan>15</tspan></text></g><g fill="none" color="#000" stroke="currentColor"><path stroke="#000" d="M45.6 336.4h9m560.4 0h-9"/><text transform="translate(37.3 340.3)" stroke="none" fill="#000" font-family="Arial" font-size="12" text-anchor="end"><tspan>20</tspan></text></g><g fill="none" color="#000" stroke="currentColor"><path stroke="#000" d="M45.6 286.3h9m560.4 0h-9"/><text transform="translate(37.3 290.2)" stroke="none" fill="#000" font-family="Arial" font-size="12" text-anchor="end"><tspan>25</tspan></text></g><g fill="none" color="#000" stroke="currentColor"><path stroke="#000" d="M45.6 236.2h9m560.4 0h-9"/><text transform="translate(37.3 240.1)" stroke="none" fill="#000" font-family="Arial" font-size="12" text-anchor="end"><tspan>30</tspan></text></g><g fill="none" color="#000" stroke="currentColor"><path stroke="#000" d="M45.6 186.2h9m560.4 0h-9"/><text transform="translate(37.3 190.1)" stroke="none" fill="#000" font-family="Arial" font-size="12" text-anchor="end"><tspan>35</tspan></text></g><g fill="none" color="#000" stroke="currentColor"><path stroke="#000" d="M45.6 136.1h9m560.4 0h-9"/><text transform="translate(37.3 140)" stroke="none" fill="#000" font-family="Arial" font-size="12" text-anchor="end"><tspan>40</tspan></text></g><g fill="none" color="#000" stroke="currentColor"><path stroke="#000" d="M45.6 86h9M615 86h-9"/><text transform="translate(37.3 89.9)" stroke="none" fill="#000" font-family="Arial" font-size="12" text-anchor="end"><tspan>45</tspan></text></g><g fill="none" color="#000" stroke="currentColor"><path stroke="#000" d="M45.6 36h9M615 36h-9"/><text transform="translate(37.3 39.9)" stroke="none" fill="#000" font-family="Arial" font-size="12" text-anchor="end"><tspan>50</tspan></text></g><g fill="none" color="#000" stroke="currentColor"><path stroke="#000" d="M45.6 428v-9m0-400.9v9"/><text transform="translate(45.6 449.9)" stroke="none" fill="#000" font-family="Arial" font-size="12" text-anchor="middle"><tspan>0</tspan></text></g><g fill="none" color="#000" stroke="currentColor"><path stroke="#000" d="M103.1 428v-9m0-400.9v9"/><text transform="translate(103.1 449.9)" stroke="none" fill="#000" font-family="Arial" font-size="12" text-anchor="middle"><tspan>10</tspan></text></g><g fill="none" color="#000" stroke="currentColor"><path stroke="#000" d="M160.6 428v-9m0-400.9v9"/><text transform="translate(160.6 449.9)" stroke="none" fill="#000" font-family="Arial" font-size="12" text-anchor="middle"><tspan>20</tspan></text></g><g fill="none" color="#000" stroke="currentColor"><path stroke="#000" d="M218.1 428v-9m0-400.9v9"/><text transform="translate(218.1 449.9)" stroke="none" fill="#000" font-family="Arial" font-size="12" text-anchor="middle"><tspan>30</tspan></text></g><g fill="none" color="#000" stroke="currentColor"><path stroke="#000" d="M275.7 428v-9m0-400.9v9"/><text transform="translate(275.7 449.9)" stroke="none" fill="#000" font-family="Arial" font-size="12" text-anchor="middle"><tspan>40</tspan></text></g><g fill="none" color="#000" stroke="currentColor"><path stroke="#000" d="M333.2 428v-9m0-400.9v9"/><text transform="translate(333.2 449.9)" stroke="none" fill="#000" font-family="Arial" font-size="12" text-anchor="middle"><tspan>50</tspan></text></g><g fill="none" color="#000" stroke="currentColor"><path stroke="#000" d="M390.7 428v-9m0-400.9v9"/><text transform="translate(390.7 449.9)" stroke="none" fill="#000" font-family="Arial" font-size="12" text-anchor="middle"><tspan>60</tspan></text></g><g fill="none" color="#000" stroke="currentColor"><path stroke="#000" d="M448.2 428v-9m0-400.9v9"/><text transform="translate(448.2 449.9)" stroke="none" fill="#000" font-family="Arial" font-size="12" text-anchor="middle"><tspan>70</tspan></text></g><g fill="none" color="#000" stroke="currentColor"><path stroke="#000" d="M505.7 428v-9m0-400.9v9"/><text transform="translate(505.7 449.9)" stroke="none" fill="#000" font-family="Arial" font-size="12" text-anchor="middle"><tspan>80</tspan></text></g><g fill="none" color="#000" stroke="currentColor"><path stroke="#000" d="M563.2 428v-9m0-400.9v9"/><text transform="translate(563.2 449.9)" stroke="none" fill="#000" font-family="Arial" font-size="12" text-anchor="middle"><tspan>90</tspan></text></g><path stroke="#000" d="M45.6 18.1V428H615V18.1H45.6z" fill="none" color="#000"/><text transform="translate(271.5 467.9)" stroke="none" fill="#000" font-family="Arial" font-size="12" text-anchor="end" color="#000"><tspan>pages+cached+noexternal+nocss</tspan></text><path stroke="#9400D3" d="M279.8 464H322M45.6 296.7l5.8 2.2 5.7 3.8 5.8-3.3 5.7 12.1 5.8-20.2 5.7 2 5.8 14.8 5.7-13 5.8 4.9 5.7-15.2 5.8 14.3 5.7-6.2 5.8 12.9 5.7-17.2 5.8 17.5 5.7-38.1 5.8 27 5.7 6.2 5.8-14 5.7 24 5.8-8.9 5.7-7.6 5.8 5 5.7-20.6 5.8 21.7 5.7-6.3 5.8 11.8 5.7-17.6 5.8 6.5 5.7 12.4 5.8-9.2 5.7 1.1 5.8 4 5.8-3.9 5.7-9.9 5.8 9.8 5.7-3.6 5.8-3.1 5.7 2.7 5.8-8.1 5.7 16.3 5.8-8.6 5.7 8.2 5.8-13.9 5.7 4.3 5.8 3 5.7-8.3 5.8 6.6 5.7 2.2 5.8 31 5.7-27.1 5.8 2.9 5.7-16.7 5.8 1.1 5.7 8.9 5.8 1.9 5.7 9.8 5.8-7.9 5.7-7.7 5.8 16.8 5.7-5.5 5.8-7.4 5.7 2 5.8 7.1 5.7-15 5.8-2 5.8 12 5.7-17.4 5.8 21.9 5.7-5.8 5.8-11.8 5.7-5.8 5.8 26.1 5.7-22 5.8 9.7 5.7 1.6 5.8 1.5 5.7 7.5 5.8-15 5.7 15.9 5.8 20.1 5.7-29.4 5.8.8 5.7-18.7 5.8 23.5 5.7-3.7 5.8-2.5 5.7 2.4L557.5 26l5.7 270.2 5.8 1.3 5.7-15.9 5.8 19.2 5.7-5.7 5.8-3.1 5.7 7.3 5.8-11.9 5.7 7.4 5.8-6.6" fill="none" color="#000"/><text transform="translate(271.5 485.9)" stroke="none" fill="#000" font-family="Arial" font-size="12" text-anchor="end" color="#000"><tspan>pages+cached+noexternal+nojs</tspan></text><path stroke="#009E73" d="M279.8 482H322M45.6 403.1l5.8 3.5 5.7-4.2 5.8-14.3 5.7 7.2 5.8 7.4 5.7 7 5.8-6 5.7-4.4 5.8-5.4 5.7 11.9 5.8-14.9 5.7 20.1 5.8-16.7 5.7-.8 5.8 6.4 5.7-1.6 5.8 2.3 5.7 2.7 5.8.8 5.7-7 5.8 5.4 5.7-2.4 5.8 5.7 5.7-10.4 5.8 10.6 5.7-8.4 5.8-5.3 5.7 9.2 5.8-1.2 5.7-14.3 5.8 23 5.7-24.4 5.8 19.4 5.8-7.2 5.7.5 5.8 3.1 5.7 3.9 5.8 3.5 5.7-.9 5.8-9.7 5.7-4 5.8 21 5.7-21.1 5.8 4.6 5.7 4.7 5.8 13.6 5.7-7.3 5.8-14.3 5.7-4.1 5.8 14.7 5.7-8 5.8-.7 5.7-7.2 5.8 3.7 5.7 12.2 5.8-1.9 5.7 3.4 5.8 4.3 5.7 9.3 5.8-31.2 5.7 2 5.8 5.4 5.7 1.3 5.8-7.7 5.7 3.2 5.8 8.7 5.8-6.3 5.7 1.1 5.8 5.3 5.7-6.7 5.8 19.5 5.7-18.5 5.8 19.4 5.7 1.5 5.8-3.5 5.7-14.8 5.8 14.5 5.7 3.3 5.8-16.7 5.7-3 5.8 4.1 5.7-.5 5.8 14.6 5.7-21.3 5.8 8.2 5.7 15.2 5.8-18 5.7 16.2 5.8-14 5.7-.8 5.8 2.6 5.7 7.2 5.8-5.2 5.7 6.3 5.8.4 5.7-14.7 5.8 14.7 5.7-12 5.8 12.6" fill="none" color="#000"/><text transform="translate(571 467.9)" stroke="none" fill="#000" font-family="Arial" font-size="12" text-anchor="end" color="#000"><tspan>score p10=1282</tspan></text><path stroke="#56B4E9" d="M579.3 464h42.2" fill="none" color="#000"/><g><text transform="translate(571 485.9)" stroke="none" fill="#000" font-family="Arial" font-size="12" text-anchor="end" color="#000"><tspan>score median=3500</tspan></text><path stroke="#E69F00" d="M579.3 482h42.2" fill="none" color="#000"/></g><g fill="none" color="#000" stroke="currentColor"><path stroke="#000" d="M45.6 18.1V428H615V18.1H45.6z"/></g></svg>

<?xml version="1.0" encoding="utf-8"  standalone="no"?>
<svg 
 width="640" height="500"
 viewBox="0 0 640 500"
 xmlns="http://www.w3.org/2000/svg"
 xmlns:xlink="http://www.w3.org/1999/xlink"
>

<title>Gnuplot</title>
<desc>Produced by GNUPLOT 5.4 patchlevel 0 </desc>

<g id="gnuplot_canvas">

<rect x="0" y="0" width="640" height="500" fill="#ffffff"/>
<defs>

	<circle id='gpDot' r='0.5' stroke-width='0.5' stroke='currentColor'/>
	<path id='gpPt0' stroke-width='0.222' stroke='currentColor' d='M-1,0 h2 M0,-1 v2'/>
	<path id='gpPt1' stroke-width='0.222' stroke='currentColor' d='M-1,-1 L1,1 M1,-1 L-1,1'/>
	<path id='gpPt2' stroke-width='0.222' stroke='currentColor' d='M-1,0 L1,0 M0,-1 L0,1 M-1,-1 L1,1 M-1,1 L1,-1'/>
	<rect id='gpPt3' stroke-width='0.222' stroke='currentColor' x='-1' y='-1' width='2' height='2'/>
	<rect id='gpPt4' stroke-width='0.222' stroke='currentColor' fill='currentColor' x='-1' y='-1' width='2' height='2'/>
	<circle id='gpPt5' stroke-width='0.222' stroke='currentColor' cx='0' cy='0' r='1'/>
	<use xlink:href='#gpPt5' id='gpPt6' fill='currentColor' stroke='none'/>
	<path id='gpPt7' stroke-width='0.222' stroke='currentColor' d='M0,-1.33 L-1.33,0.67 L1.33,0.67 z'/>
	<use xlink:href='#gpPt7' id='gpPt8' fill='currentColor' stroke='none'/>
	<use xlink:href='#gpPt7' id='gpPt9' stroke='currentColor' transform='rotate(180)'/>
	<use xlink:href='#gpPt9' id='gpPt10' fill='currentColor' stroke='none'/>
	<use xlink:href='#gpPt3' id='gpPt11' stroke='currentColor' transform='rotate(45)'/>
	<use xlink:href='#gpPt11' id='gpPt12' fill='currentColor' stroke='none'/>
	<path id='gpPt13' stroke-width='0.222' stroke='currentColor' d='M0,1.330 L1.265,0.411 L0.782,-1.067 L-0.782,-1.076 L-1.265,0.411 z'/>
	<use xlink:href='#gpPt13' id='gpPt14' fill='currentColor' stroke='none'/>
	<filter id='textbox' filterUnits='objectBoundingBox' x='0' y='0' height='1' width='1'>
	  <feFlood flood-color='#FFFFFF' flood-opacity='1' result='bgnd'/>
	  <feComposite in='SourceGraphic' in2='bgnd' operator='atop'/>
	</filter>
	<filter id='greybox' filterUnits='objectBoundingBox' x='0' y='0' height='1' width='1'>
	  <feFlood flood-color='lightgrey' flood-opacity='1' result='grey'/>
	  <feComposite in='SourceGraphic' in2='grey' operator='atop'/>
	</filter>
</defs>
<g fill="none" color="#FFFFFF" stroke="black" stroke-width="1.00" stroke-linecap="butt" stroke-linejoin="miter">
</g>
<g fill="none" color="black" stroke="currentColor" stroke-width="1.00" stroke-linecap="butt" stroke-linejoin="miter">
	<path stroke='black'  d='M45.6,386.5 L54.6,386.5 M615.0,386.5 L606.0,386.5  '/>	<g transform="translate(37.3,390.4)" stroke="none" fill="black" font-family="Arial" font-size="12.00"  text-anchor="end">
		<text><tspan font-family="Arial" > 15</tspan></text>
	</g>
</g>
<g fill="none" color="black" stroke="currentColor" stroke-width="1.00" stroke-linecap="butt" stroke-linejoin="miter">
	<path stroke='black'  d='M45.6,336.4 L54.6,336.4 M615.0,336.4 L606.0,336.4  '/>	<g transform="translate(37.3,340.3)" stroke="none" fill="black" font-family="Arial" font-size="12.00"  text-anchor="end">
		<text><tspan font-family="Arial" > 20</tspan></text>
	</g>
</g>
<g fill="none" color="black" stroke="currentColor" stroke-width="1.00" stroke-linecap="butt" stroke-linejoin="miter">
	<path stroke='black'  d='M45.6,286.3 L54.6,286.3 M615.0,286.3 L606.0,286.3  '/>	<g transform="translate(37.3,290.2)" stroke="none" fill="black" font-family="Arial" font-size="12.00"  text-anchor="end">
		<text><tspan font-family="Arial" > 25</tspan></text>
	</g>
</g>
<g fill="none" color="black" stroke="currentColor" stroke-width="1.00" stroke-linecap="butt" stroke-linejoin="miter">
	<path stroke='black'  d='M45.6,236.2 L54.6,236.2 M615.0,236.2 L606.0,236.2  '/>	<g transform="translate(37.3,240.1)" stroke="none" fill="black" font-family="Arial" font-size="12.00"  text-anchor="end">
		<text><tspan font-family="Arial" > 30</tspan></text>
	</g>
</g>
<g fill="none" color="black" stroke="currentColor" stroke-width="1.00" stroke-linecap="butt" stroke-linejoin="miter">
	<path stroke='black'  d='M45.6,186.2 L54.6,186.2 M615.0,186.2 L606.0,186.2  '/>	<g transform="translate(37.3,190.1)" stroke="none" fill="black" font-family="Arial" font-size="12.00"  text-anchor="end">
		<text><tspan font-family="Arial" > 35</tspan></text>
	</g>
</g>
<g fill="none" color="black" stroke="currentColor" stroke-width="1.00" stroke-linecap="butt" stroke-linejoin="miter">
	<path stroke='black'  d='M45.6,136.1 L54.6,136.1 M615.0,136.1 L606.0,136.1  '/>	<g transform="translate(37.3,140.0)" stroke="none" fill="black" font-family="Arial" font-size="12.00"  text-anchor="end">
		<text><tspan font-family="Arial" > 40</tspan></text>
	</g>
</g>
<g fill="none" color="black" stroke="currentColor" stroke-width="1.00" stroke-linecap="butt" stroke-linejoin="miter">
	<path stroke='black'  d='M45.6,86.0 L54.6,86.0 M615.0,86.0 L606.0,86.0  '/>	<g transform="translate(37.3,89.9)" stroke="none" fill="black" font-family="Arial" font-size="12.00"  text-anchor="end">
		<text><tspan font-family="Arial" > 45</tspan></text>
	</g>
</g>
<g fill="none" color="black" stroke="currentColor" stroke-width="1.00" stroke-linecap="butt" stroke-linejoin="miter">
	<path stroke='black'  d='M45.6,36.0 L54.6,36.0 M615.0,36.0 L606.0,36.0  '/>	<g transform="translate(37.3,39.9)" stroke="none" fill="black" font-family="Arial" font-size="12.00"  text-anchor="end">
		<text><tspan font-family="Arial" > 50</tspan></text>
	</g>
</g>
<g fill="none" color="black" stroke="currentColor" stroke-width="1.00" stroke-linecap="butt" stroke-linejoin="miter">
	<path stroke='black'  d='M45.6,428.0 L45.6,419.0 M45.6,18.1 L45.6,27.1  '/>	<g transform="translate(45.6,449.9)" stroke="none" fill="black" font-family="Arial" font-size="12.00"  text-anchor="middle">
		<text><tspan font-family="Arial" > 0</tspan></text>
	</g>
</g>
<g fill="none" color="black" stroke="currentColor" stroke-width="1.00" stroke-linecap="butt" stroke-linejoin="miter">
	<path stroke='black'  d='M103.1,428.0 L103.1,419.0 M103.1,18.1 L103.1,27.1  '/>	<g transform="translate(103.1,449.9)" stroke="none" fill="black" font-family="Arial" font-size="12.00"  text-anchor="middle">
		<text><tspan font-family="Arial" > 10</tspan></text>
	</g>
</g>
<g fill="none" color="black" stroke="currentColor" stroke-width="1.00" stroke-linecap="butt" stroke-linejoin="miter">
	<path stroke='black'  d='M160.6,428.0 L160.6,419.0 M160.6,18.1 L160.6,27.1  '/>	<g transform="translate(160.6,449.9)" stroke="none" fill="black" font-family="Arial" font-size="12.00"  text-anchor="middle">
		<text><tspan font-family="Arial" > 20</tspan></text>
	</g>
</g>
<g fill="none" color="black" stroke="currentColor" stroke-width="1.00" stroke-linecap="butt" stroke-linejoin="miter">
	<path stroke='black'  d='M218.1,428.0 L218.1,419.0 M218.1,18.1 L218.1,27.1  '/>	<g transform="translate(218.1,449.9)" stroke="none" fill="black" font-family="Arial" font-size="12.00"  text-anchor="middle">
		<text><tspan font-family="Arial" > 30</tspan></text>
	</g>
</g>
<g fill="none" color="black" stroke="currentColor" stroke-width="1.00" stroke-linecap="butt" stroke-linejoin="miter">
	<path stroke='black'  d='M275.7,428.0 L275.7,419.0 M275.7,18.1 L275.7,27.1  '/>	<g transform="translate(275.7,449.9)" stroke="none" fill="black" font-family="Arial" font-size="12.00"  text-anchor="middle">
		<text><tspan font-family="Arial" > 40</tspan></text>
	</g>
</g>
<g fill="none" color="black" stroke="currentColor" stroke-width="1.00" stroke-linecap="butt" stroke-linejoin="miter">
	<path stroke='black'  d='M333.2,428.0 L333.2,419.0 M333.2,18.1 L333.2,27.1  '/>	<g transform="translate(333.2,449.9)" stroke="none" fill="black" font-family="Arial" font-size="12.00"  text-anchor="middle">
		<text><tspan font-family="Arial" > 50</tspan></text>
	</g>
</g>
<g fill="none" color="black" stroke="currentColor" stroke-width="1.00" stroke-linecap="butt" stroke-linejoin="miter">
	<path stroke='black'  d='M390.7,428.0 L390.7,419.0 M390.7,18.1 L390.7,27.1  '/>	<g transform="translate(390.7,449.9)" stroke="none" fill="black" font-family="Arial" font-size="12.00"  text-anchor="middle">
		<text><tspan font-family="Arial" > 60</tspan></text>
	</g>
</g>
<g fill="none" color="black" stroke="currentColor" stroke-width="1.00" stroke-linecap="butt" stroke-linejoin="miter">
	<path stroke='black'  d='M448.2,428.0 L448.2,419.0 M448.2,18.1 L448.2,27.1  '/>	<g transform="translate(448.2,449.9)" stroke="none" fill="black" font-family="Arial" font-size="12.00"  text-anchor="middle">
		<text><tspan font-family="Arial" > 70</tspan></text>
	</g>
</g>
<g fill="none" color="black" stroke="currentColor" stroke-width="1.00" stroke-linecap="butt" stroke-linejoin="miter">
	<path stroke='black'  d='M505.7,428.0 L505.7,419.0 M505.7,18.1 L505.7,27.1  '/>	<g transform="translate(505.7,449.9)" stroke="none" fill="black" font-family="Arial" font-size="12.00"  text-anchor="middle">
		<text><tspan font-family="Arial" > 80</tspan></text>
	</g>
</g>
<g fill="none" color="black" stroke="currentColor" stroke-width="1.00" stroke-linecap="butt" stroke-linejoin="miter">
	<path stroke='black'  d='M563.2,428.0 L563.2,419.0 M563.2,18.1 L563.2,27.1  '/>	<g transform="translate(563.2,449.9)" stroke="none" fill="black" font-family="Arial" font-size="12.00"  text-anchor="middle">
		<text><tspan font-family="Arial" > 90</tspan></text>
	</g>
</g>
<g fill="none" color="black" stroke="currentColor" stroke-width="1.00" stroke-linecap="butt" stroke-linejoin="miter">
</g>
<g fill="none" color="black" stroke="currentColor" stroke-width="1.00" stroke-linecap="butt" stroke-linejoin="miter">
	<path stroke='black'  d='M45.6,18.1 L45.6,428.0 L615.0,428.0 L615.0,18.1 L45.6,18.1 Z  '/></g>
<g fill="none" color="black" stroke="currentColor" stroke-width="1.00" stroke-linecap="butt" stroke-linejoin="miter">
</g>
	<g id="gnuplot_plot_1" ><title>pages+cached+noexternal+nocss</title>
<g fill="none" color="black" stroke="currentColor" stroke-width="1.00" stroke-linecap="butt" stroke-linejoin="miter">
	<g transform="translate(271.5,467.9)" stroke="none" fill="black" font-family="Arial" font-size="12.00"  text-anchor="end">
		<text><tspan font-family="Arial" >pages+cached+noexternal+nocss</tspan></text>
	</g>
</g>
<g fill="none" color="black" stroke="currentColor" stroke-width="1.00" stroke-linecap="butt" stroke-linejoin="miter">
	<path stroke='rgb(148,   0, 211)'  d='M279.8,464.0 L322.0,464.0 M45.6,296.7 L51.4,298.9 L57.1,302.7 L62.9,299.4 L68.6,311.5 L74.4,291.3
		L80.1,293.3 L85.9,308.1 L91.6,295.1 L97.4,300.0 L103.1,284.8 L108.9,299.1 L114.6,292.9 L120.4,305.8
		L126.1,288.6 L131.9,306.1 L137.6,268.0 L143.4,295.0 L149.1,301.2 L154.9,287.2 L160.6,311.2 L166.4,302.3
		L172.1,294.7 L177.9,299.7 L183.6,279.1 L189.4,300.8 L195.1,294.5 L200.9,306.3 L206.6,288.7 L212.4,295.2
		L218.1,307.6 L223.9,298.4 L229.6,299.5 L235.4,303.5 L241.2,299.6 L246.9,289.7 L252.7,299.5 L258.4,295.9
		L264.2,292.8 L269.9,295.5 L275.7,287.4 L281.4,303.7 L287.2,295.1 L292.9,303.3 L298.7,289.4 L304.4,293.7
		L310.2,296.7 L315.9,288.4 L321.7,295.0 L327.4,297.2 L333.2,328.2 L338.9,301.1 L344.7,304.0 L350.4,287.3
		L356.2,288.4 L361.9,297.3 L367.7,299.2 L373.4,309.0 L379.2,301.1 L384.9,293.4 L390.7,310.2 L396.4,304.7
		L402.2,297.3 L407.9,299.3 L413.7,306.4 L419.4,291.4 L425.2,289.4 L431.0,301.4 L436.7,284.0 L442.5,305.9
		L448.2,300.1 L454.0,288.3 L459.7,282.5 L465.5,308.6 L471.2,286.6 L477.0,296.3 L482.7,297.9 L488.5,299.4
		L494.2,306.9 L500.0,291.9 L505.7,307.8 L511.5,327.9 L517.2,298.5 L523.0,299.3 L528.7,280.6 L534.5,304.1
		L540.2,300.4 L546.0,297.9 L551.7,300.3 L557.5,26.0 L563.2,296.2 L569.0,297.5 L574.7,281.6 L580.5,300.8
		L586.2,295.1 L592.0,292.0 L597.7,299.3 L603.5,287.4 L609.2,294.8 L615.0,288.2  '/></g>
	</g>
	<g id="gnuplot_plot_2" ><title>pages+cached+noexternal+nojs</title>
<g fill="none" color="black" stroke="currentColor" stroke-width="1.00" stroke-linecap="butt" stroke-linejoin="miter">
	<g transform="translate(271.5,485.9)" stroke="none" fill="black" font-family="Arial" font-size="12.00"  text-anchor="end">
		<text><tspan font-family="Arial" >pages+cached+noexternal+nojs</tspan></text>
	</g>
</g>
<g fill="none" color="black" stroke="currentColor" stroke-width="1.00" stroke-linecap="butt" stroke-linejoin="miter">
	<path stroke='rgb(  0, 158, 115)'  d='M279.8,482.0 L322.0,482.0 M45.6,403.1 L51.4,406.6 L57.1,402.4 L62.9,388.1 L68.6,395.3 L74.4,402.7
		L80.1,409.7 L85.9,403.7 L91.6,399.3 L97.4,393.9 L103.1,405.8 L108.9,390.9 L114.6,411.0 L120.4,394.3
		L126.1,393.5 L131.9,399.9 L137.6,398.3 L143.4,400.6 L149.1,403.3 L154.9,404.1 L160.6,397.1 L166.4,402.5
		L172.1,400.1 L177.9,405.8 L183.6,395.4 L189.4,406.0 L195.1,397.6 L200.9,392.3 L206.6,401.5 L212.4,400.3
		L218.1,386.0 L223.9,409.0 L229.6,384.6 L235.4,404.0 L241.2,396.8 L246.9,397.3 L252.7,400.4 L258.4,404.3
		L264.2,407.8 L269.9,406.9 L275.7,397.2 L281.4,393.2 L287.2,414.2 L292.9,393.1 L298.7,397.7 L304.4,402.4
		L310.2,416.0 L315.9,408.7 L321.7,394.4 L327.4,390.3 L333.2,405.0 L338.9,397.0 L344.7,396.3 L350.4,389.1
		L356.2,392.8 L361.9,405.0 L367.7,403.1 L373.4,406.5 L379.2,410.8 L384.9,420.1 L390.7,388.9 L396.4,390.9
		L402.2,396.3 L407.9,397.6 L413.7,389.9 L419.4,393.1 L425.2,401.8 L431.0,395.5 L436.7,396.6 L442.5,401.9
		L448.2,395.2 L454.0,414.7 L459.7,396.2 L465.5,415.6 L471.2,417.1 L477.0,413.6 L482.7,398.8 L488.5,413.3
		L494.2,416.6 L500.0,399.9 L505.7,396.9 L511.5,401.0 L517.2,400.5 L523.0,415.1 L528.7,393.8 L534.5,402.0
		L540.2,417.2 L546.0,399.2 L551.7,415.4 L557.5,401.4 L563.2,400.6 L569.0,403.2 L574.7,410.4 L580.5,405.2
		L586.2,411.5 L592.0,411.9 L597.7,397.2 L603.5,411.9 L609.2,399.9 L615.0,412.5  '/></g>
	</g>
	<g id="gnuplot_plot_3" ><title>score p10=1282</title>
<g fill="none" color="black" stroke="currentColor" stroke-width="1.00" stroke-linecap="butt" stroke-linejoin="miter">
	<g transform="translate(571.0,467.9)" stroke="none" fill="black" font-family="Arial" font-size="12.00"  text-anchor="end">
		<text><tspan font-family="Arial" >score p10=1282</tspan></text>
	</g>
</g>
<g fill="none" color="black" stroke="currentColor" stroke-width="1.00" stroke-linecap="butt" stroke-linejoin="miter">
	<path stroke='rgb( 86, 180, 233)'  d='M579.3,464.0 L621.5,464.0  '/></g>
	</g>
	<g id="gnuplot_plot_4" ><title>score median=3500</title>
<g fill="none" color="black" stroke="currentColor" stroke-width="1.00" stroke-linecap="butt" stroke-linejoin="miter">
	<g transform="translate(571.0,485.9)" stroke="none" fill="black" font-family="Arial" font-size="12.00"  text-anchor="end">
		<text><tspan font-family="Arial" >score median=3500</tspan></text>
	</g>
</g>
<g fill="none" color="black" stroke="currentColor" stroke-width="1.00" stroke-linecap="butt" stroke-linejoin="miter">
	<path stroke='rgb(230, 159,   0)'  d='M579.3,482.0 L621.5,482.0  '/></g>
	</g>
<g fill="none" color="#FFFFFF" stroke="rgb(230, 159,   0)" stroke-width="2.00" stroke-linecap="butt" stroke-linejoin="miter">
</g>
<g fill="none" color="black" stroke="currentColor" stroke-width="2.00" stroke-linecap="butt" stroke-linejoin="miter">
</g>
<g fill="none" color="black" stroke="black" stroke-width="1.00" stroke-linecap="butt" stroke-linejoin="miter">
</g>
<g fill="none" color="black" stroke="currentColor" stroke-width="1.00" stroke-linecap="butt" stroke-linejoin="miter">
	<path stroke='black'  d='M45.6,18.1 L45.6,428.0 L615.0,428.0 L615.0,18.1 L45.6,18.1 Z  '/></g>
<g fill="none" color="black" stroke="currentColor" stroke-width="1.00" stroke-linecap="butt" stroke-linejoin="miter">
</g>
</g>
</svg>
